svgs/sharp-solid/h2.svg

<svg xmlns="http://www.w3.org/2000/svg" viewBox="0 0 640 512"><!--! Font Awesome Pro 6.6.0 by @fontawesome - https://fontawesome.com License - https://fontawesome.com/license (Commercial License) Copyright 2024 Fonticons, Inc. --><path d="M64 96l0-32L0 64 0 96 0 256 0 416l0 32 64 0 0-32 0-128 192 0 0 128 0 32 61.7 0s0 0 0 0l2.3 0s0 0 0 0l0-2.1 0-29.9 0-160 0-160 0-32-64 0 0 32 0 128L64 224 64 96zm427.5 32l4.5 0c35.3 0 64 28.7 64 64l0 5.8c0 17.9-7.5 35.1-20.8 47.2L378.4 392.4 368 401.9l0 46.1 32 0 208 0 32 0 0-64-32 0-125.7 0 100.2-91.9c26.4-24.2 41.5-58.5 41.5-94.4l0-5.8c0-70.7-57.3-128-128-128l-4.5 0c-30.6 0-60.1 10.9-83.3 30.8l-29 24.9-24.3 20.8 41.6 48.6 24.3-20.8 29-24.9c11.6-9.9 26.4-15.4 41.7-15.4z"/></svg>

<svg xmlns="http://www.w3.org/2000/svg" viewBox="0 0 640 512"><!--! Font Awesome Pro 6.4.2 by @fontawesome - https://fontawesome.com License - https://fontawesome.com/license (Commercial License) Copyright 2023 Fonticons, Inc. --><path d="M64 96V64H0V96 256 416v32H64V416 288H256V416v32h61.7l0 0H320l0 0 0-2.1 0-29.9V256 96 64H256V96 224H64V96zm427.5 32H496c35.3 0 64 28.7 64 64v5.8c0 17.9-7.5 35.1-20.8 47.2L378.4 392.4 368 401.9V448h32H608h32V384H608 482.3l100.2-91.9c26.4-24.2 41.5-58.5 41.5-94.4V192c0-70.7-57.3-128-128-128h-4.5c-30.6 0-60.1 10.9-83.3 30.8l-29 24.9-24.3 20.8 41.6 48.6 24.3-20.8 29-24.9c11.6-9.9 26.4-15.4 41.7-15.4z"/></svg>
